korla/apps/scalable/gitkraken.svg

<!DOCTYPE svg  PUBLIC '-//W3C//DTD SVG 1.1//EN'  'http://www.w3.org/Graphics/SVG/1.1/DTD/svg11.dtd'>
<svg style="clip-rule:evenodd;fill-rule:evenodd;stroke-linejoin:round;stroke-miterlimit:1.41421" version="1.1" viewBox="0 0 48 48" xmlns="http://www.w3.org/2000/svg">
 <circle cx="24" cy="24" r="22" style="fill:url(#_Linear1)"/>
 <path d="m25.947 45.346c0.805-0.073 1.628-0.083 2.405-0.241 1.404-0.286 2.759-0.708 4.048-1.251 1.29-0.544 2.515-1.208 3.661-1.981 1.145-0.773 2.212-1.653 3.185-2.627 0.974-0.973 1.854-2.04 2.627-3.185 0.773-1.146 1.437-2.371 1.981-3.661 0.543-1.289 0.965-2.644 1.251-4.048 0.276-1.355 0.41-2.76 0.42-4.196l-7.56-7.56-2e-3 -2e-3c-0.053-0.053-0.115-0.091-0.182-0.121-0.014-7e-3 -0.028-0.011-0.043-0.016-0.053-0.02-0.106-0.032-0.162-0.037-0.021-2e-3 -0.041-4e-3 -0.062-4e-3 -0.071 1e-3 -0.142 0.011-0.209 0.039-0.224 0.099-0.371 0.324-0.371 0.547v0.014l-3.928-3.928c-0.028-0.028-0.059-0.054-0.088-0.082-0.121-0.118-0.246-0.23-0.371-0.344-0.083-0.075-0.163-0.154-0.248-0.226-0.149-0.128-0.303-0.249-0.457-0.37-0.076-0.058-0.148-0.12-0.225-0.177-0.153-0.114-0.311-0.221-0.469-0.328-0.083-0.057-0.163-0.118-0.248-0.172-0.242-0.156-0.49-0.304-0.744-0.444-0.074-0.043-0.153-0.068-0.232-0.076-0.238-0.023-0.474 0.108-0.586 0.35-0.05 0.074-0.051 0.172-0.051 0.271 0 0.101 0.032 0.194 0.076 0.278 0.014 0.025 0.029 0.045 0.045 0.068 0.02 0.028 0.033 0.06 0.057 0.084l4.654 4.654c0.024 0.044 0.049 0.087 0.072 0.131 0.153 0.287 0.298 0.58 0.426 0.881 0.02 0.046 0.038 0.094 0.057 0.141 0.111 0.271 0.211 0.547 0.303 0.828 0.025 0.078 0.05 0.155 0.074 0.234 0.096 0.318 0.181 0.642 0.25 0.971 0.01 0.049 0.016 0.099 0.025 0.148 0.057 0.294 0.103 0.591 0.137 0.893 9e-3 0.083 0.018 0.166 0.025 0.25 0.011 0.112 0.011 0.228 0.018 0.342l-8.899-8.899c-0.11-0.111-0.218-0.203-0.328-0.305-0.09-0.083-0.179-0.171-0.267-0.248-0.061-0.052-0.12-0.099-0.18-0.148-0.141-0.115-0.279-0.219-0.414-0.314-0.07-0.05-0.139-0.098-0.207-0.141-0.13-0.082-0.255-0.148-0.377-0.207-0.056-0.027-0.114-0.06-0.168-0.082-0.174-0.07-0.34-0.119-0.492-0.129h-0.397c-0.811 0.056-1.966 1.005-3.091 2.273l-2.163-2.162c-0.01-0.01-0.025-0.014-0.037-0.023-0.028-0.024-0.057-0.039-0.09-0.057-0.086-0.047-0.179-0.08-0.279-0.08-0.099 0-0.199 0.025-0.299 0.074-2.451 1.35-4.408 3.494-5.531 6.082-0.092 0.214-0.175 0.433-0.256 0.653l-1.119-1.118-2e-3 -3e-3c-0.053-0.054-0.118-0.097-0.191-0.127-0.075-0.025-0.148-0.051-0.223-0.051-0.248 0-0.471 0.15-0.57 0.398-0.646 1.663-0.994 3.449-0.994 5.311 0 0.515 0.027 1.024 0.078 1.525 0.013 0.13 0.04 0.256 0.056 0.385 0.047 0.37 0.095 0.74 0.168 1.102 0.036 0.175 0.088 0.344 0.129 0.517 0.072 0.298 0.14 0.598 0.229 0.889 0.072 0.237 0.164 0.465 0.248 0.697 0.081 0.226 0.154 0.455 0.246 0.676 0.082 0.196 0.18 0.383 0.269 0.574 0.118 0.251 0.23 0.503 0.36 0.746 0.099 0.184 0.212 0.358 0.318 0.537 0.134 0.227 0.263 0.456 0.408 0.674 0.126 0.189 0.265 0.368 0.399 0.551 0.151 0.206 0.298 0.415 0.459 0.613 0.135 0.167 0.282 0.322 0.424 0.483 0.171 0.193 0.34 0.389 0.521 0.574 0.033 0.033 0.061 0.07 0.094 0.103l12.609 12.61z" style="fill-rule:nonzero;fill:url(#_Linear2)"/>
 <path d="m38.1 16.803c-0.124-0.322-0.497-0.471-0.795-0.347-0.223 0.099-0.372 0.322-0.372 0.546 0 0.074 0 0.149 0.05 0.198 0.571 1.515 0.893 3.153 0.893 4.891 0 7.025-5.237 12.858-12.039 13.727v-6.479c0.422-0.074 0.819-0.198 1.216-0.323v5.437c5.536-1.341 9.682-6.355 9.682-12.362 0-4.791-2.657-8.986-6.579-11.146-0.298-0.174-0.67-0.05-0.819 0.273-0.05 0.074-0.05 0.174-0.05 0.273 0 0.223 0.125 0.422 0.298 0.521 3.55 1.961 5.958 5.759 5.958 10.104 0 4.89-3.029 9.06-7.323 10.748v-4.816c0.745-0.223 1.291-0.918 1.291-1.762 0-0.695-0.348-1.266-0.919-1.589 0.422-4.17 2.334-3.053 2.334-4.394v-0.769c0-1.986-4.593-8.465-6.752-8.614h-0.397c-2.16 0.149-6.752 6.628-6.752 8.614v0.769c0 1.316 1.886 0.224 2.333 4.394-0.546 0.323-0.894 0.919-0.894 1.589 0 0.819 0.546 1.514 1.291 1.762v4.816c-4.269-1.688-7.323-5.858-7.323-10.748 0-4.345 2.408-8.143 5.958-10.104 0.273-0.149 0.397-0.496 0.248-0.794-0.074-0.223-0.298-0.348-0.521-0.348-0.099 0-0.199 0.025-0.298 0.075-3.922 2.16-6.578 6.355-6.578 11.146 0 6.007 4.145 11.021 9.731 12.387v-5.437c0.397 0.124 0.794 0.249 1.216 0.323v6.479c-6.802-0.894-12.04-6.702-12.04-13.752 0-1.713 0.323-3.351 0.894-4.89 0.124-0.298-0.025-0.646-0.323-0.77-0.074-0.025-0.149-0.05-0.223-0.05-0.248 0-0.472 0.149-0.571 0.397-0.645 1.664-0.993 3.451-0.993 5.313 0 8.117 6.405 14.72 14.447 15.043v-7.621c0.224 0.025 0.621 0.025 0.621 0.025s0.397 0 0.621-0.025v7.621c8.042-0.323 14.447-6.926 14.447-15.043-0.025-1.862-0.348-3.649-0.968-5.288zm-11.32 8.589c0.224-0.223 0.522-0.372 0.869-0.372 0.348 0 0.645 0.149 0.869 0.372 0.223 0.224 0.372 0.522 0.372 0.869 0 0.348-0.149 0.645-0.372 0.869-0.224 0.223-0.521 0.372-0.869 0.372-0.347 0-0.645-0.149-0.869-0.372-0.223-0.224-0.372-0.521-0.372-0.869 0-0.347 0.149-0.645 0.372-0.869zm-5.56 1.738c-0.224 0.223-0.522 0.372-0.869 0.372-0.348 0-0.645-0.149-0.869-0.372-0.248-0.224-0.372-0.521-0.372-0.869 0-0.347 0.149-0.645 0.372-0.869 0.224-0.223 0.521-0.372 0.869-0.372 0.347 0 0.645 0.149 0.869 0.372 0.223 0.224 0.372 0.522 0.372 0.869-0.025 0.348-0.149 0.645-0.372 0.869z" style="fill-rule:nonzero;fill:url(#_Linear3)"/>
 <defs>
  <linearGradient id="_Linear1" x2="1" gradientTransform="matrix(14.1858,40.7136,-40.7136,14.1858,15.2859,4.63209)" gradientUnits="userSpaceOnUse">
   <stop style="stop-color:rgb(64,198,170)" offset="0"/>
   <stop style="stop-color:rgb(18,88,64)" offset="1"/>
  </linearGradient>
  <linearGradient id="_Linear2" x2="1" gradientTransform="matrix(29.2438,25.5194,-25.5194,29.2438,9.28519,11.2239)" gradientUnits="userSpaceOnUse">
   <stop style="stop-color:black;stop-opacity:.156863" offset="0"/>
   <stop style="stop-color:black;stop-opacity:0" offset="1"/>
  </linearGradient>
  <linearGradient id="_Linear3" x2="1" gradientTransform="matrix(-.133167 -26.3903 26.3903 -.133167 23.9098 37.3105)" gradientUnits="userSpaceOnUse">
   <stop style="stop-color:rgb(236,236,236)" offset="0"/>
   <stop style="stop-color:white" offset="1"/>
  </linearGradient>
 </defs>
</svg>

<?xml version="1.0" encoding="UTF-8" standalone="no"?>
<!DOCTYPE svg PUBLIC "-//W3C//DTD SVG 1.1//EN" "http://www.w3.org/Graphics/SVG/1.1/DTD/svg11.dtd">
<svg width="100%" height="100%" viewBox="0 0 48 48" version="1.1" xmlns="http://www.w3.org/2000/svg" xmlns:xlink="http://www.w3.org/1999/xlink" xml:space="preserve" xmlns:serif="http://www.serif.com/" style="fill-rule:evenodd;clip-rule:evenodd;stroke-linejoin:round;stroke-miterlimit:1.41421;">
    <circle cx="24" cy="24" r="22" style="fill:url(#_Linear1);"/>
    <path d="M25.947,45.346C26.752,45.273 27.575,45.263 28.352,45.105C29.756,44.819 31.111,44.397 32.4,43.854C33.69,43.31 34.915,42.646 36.061,41.873C37.206,41.1 38.273,40.22 39.246,39.246C40.22,38.273 41.1,37.206 41.873,36.061C42.646,34.915 43.31,33.69 43.854,32.4C44.397,31.111 44.819,29.756 45.105,28.352C45.381,26.997 45.515,25.592 45.525,24.156L37.965,16.596L37.963,16.594C37.91,16.541 37.848,16.503 37.781,16.473C37.767,16.466 37.753,16.462 37.738,16.457C37.685,16.437 37.632,16.425 37.576,16.42C37.555,16.418 37.535,16.416 37.514,16.416C37.443,16.417 37.372,16.427 37.305,16.455C37.081,16.554 36.934,16.779 36.934,17.002C36.934,17.007 36.934,17.011 36.934,17.016L33.006,13.088C32.978,13.06 32.947,13.034 32.918,13.006C32.797,12.888 32.672,12.776 32.547,12.662C32.464,12.587 32.384,12.508 32.299,12.436C32.15,12.308 31.996,12.187 31.842,12.066C31.766,12.008 31.694,11.946 31.617,11.889C31.464,11.775 31.306,11.668 31.148,11.561C31.065,11.504 30.985,11.443 30.9,11.389C30.658,11.233 30.41,11.085 30.156,10.945C30.082,10.902 30.003,10.877 29.924,10.869C29.686,10.846 29.45,10.977 29.338,11.219C29.288,11.293 29.287,11.391 29.287,11.49C29.287,11.591 29.319,11.684 29.363,11.768C29.377,11.793 29.392,11.813 29.408,11.836C29.428,11.864 29.441,11.896 29.465,11.92L34.119,16.574C34.143,16.618 34.168,16.661 34.191,16.705C34.344,16.992 34.489,17.285 34.617,17.586C34.637,17.632 34.655,17.68 34.674,17.727C34.785,17.998 34.885,18.274 34.977,18.555C35.002,18.633 35.027,18.71 35.051,18.789C35.147,19.107 35.232,19.431 35.301,19.76C35.311,19.809 35.317,19.859 35.326,19.908C35.383,20.202 35.429,20.499 35.463,20.801C35.472,20.884 35.481,20.967 35.488,21.051C35.499,21.163 35.499,21.279 35.506,21.393L26.607,12.494C26.497,12.383 26.389,12.291 26.279,12.189C26.189,12.106 26.1,12.018 26.012,11.941C25.951,11.889 25.892,11.842 25.832,11.793C25.691,11.678 25.553,11.574 25.418,11.479C25.348,11.429 25.279,11.381 25.211,11.338C25.081,11.256 24.956,11.19 24.834,11.131C24.778,11.104 24.72,11.071 24.666,11.049C24.492,10.979 24.326,10.93 24.174,10.92L23.777,10.92C22.966,10.976 21.811,11.925 20.686,13.193L18.523,11.031C18.513,11.021 18.498,11.017 18.486,11.008C18.458,10.984 18.429,10.969 18.396,10.951C18.31,10.904 18.217,10.871 18.117,10.871C18.018,10.871 17.918,10.896 17.818,10.945C15.367,12.295 13.41,14.439 12.287,17.027C12.195,17.241 12.112,17.46 12.031,17.68L10.912,16.562L10.91,16.559C10.857,16.505 10.792,16.462 10.719,16.432C10.644,16.407 10.571,16.381 10.496,16.381C10.248,16.381 10.025,16.531 9.926,16.779C9.28,18.442 8.932,20.228 8.932,22.09C8.932,22.605 8.959,23.114 9.01,23.615C9.023,23.745 9.05,23.871 9.066,24C9.113,24.37 9.161,24.74 9.234,25.102C9.27,25.277 9.322,25.446 9.363,25.619C9.435,25.917 9.503,26.217 9.592,26.508C9.664,26.745 9.756,26.973 9.84,27.205C9.921,27.431 9.994,27.66 10.086,27.881C10.168,28.077 10.266,28.264 10.355,28.455C10.473,28.706 10.585,28.958 10.715,29.201C10.814,29.385 10.927,29.559 11.033,29.738C11.167,29.965 11.296,30.194 11.441,30.412C11.567,30.601 11.706,30.78 11.84,30.963C11.991,31.169 12.138,31.378 12.299,31.576C12.434,31.743 12.581,31.898 12.723,32.059C12.894,32.252 13.063,32.448 13.244,32.633C13.277,32.666 13.305,32.703 13.338,32.736L25.947,45.346Z" style="fill:url(#_Linear2);fill-rule:nonzero;"/>
    <path d="M38.1,16.803C37.976,16.481 37.603,16.332 37.305,16.456C37.082,16.555 36.933,16.778 36.933,17.002C36.933,17.076 36.933,17.151 36.983,17.2C37.554,18.715 37.876,20.353 37.876,22.091C37.876,29.116 32.639,34.949 25.837,35.818L25.837,29.339C26.259,29.265 26.656,29.141 27.053,29.016L27.053,34.453C32.589,33.112 36.735,28.098 36.735,22.091C36.735,17.3 34.078,13.105 30.156,10.945C29.858,10.771 29.486,10.895 29.337,11.218C29.287,11.292 29.287,11.392 29.287,11.491C29.287,11.714 29.412,11.913 29.585,12.012C33.135,13.973 35.543,17.771 35.543,22.116C35.543,27.006 32.514,31.176 28.22,32.864L28.22,28.048C28.965,27.825 29.511,27.13 29.511,26.286C29.511,25.591 29.163,25.02 28.592,24.697C29.014,20.527 30.926,21.644 30.926,20.303L30.926,19.534C30.926,17.548 26.333,11.069 24.174,10.92L23.777,10.92C21.617,11.069 17.025,17.548 17.025,19.534L17.025,20.303C17.025,21.619 18.911,20.527 19.358,24.697C18.812,25.02 18.464,25.616 18.464,26.286C18.464,27.105 19.01,27.8 19.755,28.048L19.755,32.864C15.486,31.176 12.432,27.006 12.432,22.116C12.432,17.771 14.84,13.973 18.39,12.012C18.663,11.863 18.787,11.516 18.638,11.218C18.564,10.995 18.34,10.87 18.117,10.87C18.018,10.87 17.918,10.895 17.819,10.945C13.897,13.105 11.241,17.3 11.241,22.091C11.241,28.098 15.386,33.112 20.972,34.478L20.972,29.041C21.369,29.165 21.766,29.29 22.188,29.364L22.188,35.843C15.386,34.949 10.148,29.141 10.148,22.091C10.148,20.378 10.471,18.74 11.042,17.201C11.166,16.903 11.017,16.555 10.719,16.431C10.645,16.406 10.57,16.381 10.496,16.381C10.248,16.381 10.024,16.53 9.925,16.778C9.28,18.442 8.932,20.229 8.932,22.091C8.932,30.208 15.337,36.811 23.379,37.134L23.379,29.513C23.603,29.538 24,29.538 24,29.538C24,29.538 24.397,29.538 24.621,29.513L24.621,37.134C32.663,36.811 39.068,30.208 39.068,22.091C39.043,20.229 38.72,18.442 38.1,16.803L38.1,16.803ZM26.78,25.392C27.004,25.169 27.302,25.02 27.649,25.02C27.997,25.02 28.294,25.169 28.518,25.392C28.741,25.616 28.89,25.914 28.89,26.261C28.89,26.609 28.741,26.906 28.518,27.13C28.294,27.353 27.997,27.502 27.649,27.502C27.302,27.502 27.004,27.353 26.78,27.13C26.557,26.906 26.408,26.609 26.408,26.261C26.408,25.914 26.557,25.616 26.78,25.392ZM21.22,27.13C20.996,27.353 20.698,27.502 20.351,27.502C20.003,27.502 19.706,27.353 19.482,27.13C19.234,26.906 19.11,26.609 19.11,26.261C19.11,25.914 19.259,25.616 19.482,25.392C19.706,25.169 20.003,25.02 20.351,25.02C20.698,25.02 20.996,25.169 21.22,25.392C21.443,25.616 21.592,25.914 21.592,26.261C21.567,26.609 21.443,26.906 21.22,27.13Z" style="fill:url(#_Linear3);fill-rule:nonzero;"/>
    <defs>
        <linearGradient id="_Linear1" x1="0" y1="0" x2="1" y2="0" gradientUnits="userSpaceOnUse" gradientTransform="matrix(14.1858,40.7136,-40.7136,14.1858,15.2859,4.63209)"><stop offset="0" style="stop-color:rgb(64,198,170);stop-opacity:1"/><stop offset="1" style="stop-color:rgb(18,88,64);stop-opacity:1"/></linearGradient>
        <linearGradient id="_Linear2" x1="0" y1="0" x2="1" y2="0" gradientUnits="userSpaceOnUse" gradientTransform="matrix(29.2438,25.5194,-25.5194,29.2438,9.28519,11.2239)"><stop offset="0" style="stop-color:black;stop-opacity:0.156863"/><stop offset="1" style="stop-color:black;stop-opacity:0"/></linearGradient>
        <linearGradient id="_Linear3" x1="0" y1="0" x2="1" y2="0" gradientUnits="userSpaceOnUse" gradientTransform="matrix(-0.133167,-26.3903,26.3903,-0.133167,23.9098,37.3105)"><stop offset="0" style="stop-color:rgb(236,236,236);stop-opacity:1"/><stop offset="1" style="stop-color:white;stop-opacity:1"/></linearGradient>
    </defs>
</svg>
